X: 1
T:Blaris Moor
T:The Tragedy
B:Joyce, P. W.; "Old Irish Folk Music and Songs"
H:From Mr. J. C. MacGowan of Newtownards, 1873.
R:song air
M:C
K:G
L:1/4
D/E/|G E D E|G>A B d|e/f/g e/d/c/B/|A2 G E|
G g g g|f2 e d|B B d d|Hd2 z g/e/|
d B d e/f/|g a g e|d B B/A/ G/E/|
G>A B d/e/|g>a g e/d/|B2 A G|E E G G|HG2||
